X:375
T:Laird O'MacIntosh
R:March
M:C
%%printtempo 0
Q:130
K:G
(uB/c/)|\
"G"vd2(B>c) "Em"d>c B<G|"C"vE2 (uc>A) "D"G>FE<D|"G"d>cB<g "Em"(B<G)(G<B)|"C"(E<c)("D"A>F)"G"G2-G:|
ud|\
"G"{/f}vg2 {agf}ug>f "Am"(e<a)(a>g)|"D"f>de<f "G"{/f}g>dB<G|"G"{/f}vg2 {agf}ug>f "Am"(e<a)(a>g)|"D"f>de<f "G"g2 ({/f}ug>a)|
"G"({ga}b>g)"D"(a>f) "C"g>e "D"f>d|"D"(!4!ve<d)(ud>B) "Am"A>B"D7"c<e|"G"d>cB<g "Em"(B>G)(G<B)|"C"(E<c)"D"(A>F) "G"G2-G|]
